X:1
T:In Fancy We Picture That Land
T:In Fancy We Picture That Land
T:George W. Bacon
T:Florence Elrod-Norris, 1913
T:Public Domain Courtesy of the Cyber Hymnal™
T:Public Domain Courtesy of the Cyber Hymnal™
C:George W. Bacon
Z:Public Domain
Z:Courtesy of the Cyber Hymnal™
%%score ( 1 2 ) ( 3 4 )
L:1/8
Q:1/4=83
M:6/8
K:Ab
V:1 treble 
V:2 treble 
V:3 bass 
V:4 bass 
V:1
 [CA] | [Ec]>[=D=B][Ec] [CA][_D_B][Ec] | [Fd][DF][FB] [EA]2 E/E/ | [DE]>[DE][DF] [DE]>[DE][DF] | %4
w: 1.~In|fan- cy we pic- ture that|beau- ti- ful land, With its|wa- ters of crys- tal so|
w: 2.~In|fan- cy we pic- ture the|throne of our God, And the|splen- dor sur- round- ing it|
w: 3.~We|can- not tell tru- ly of|Heav- en, our home, Tho’ we|strive while we live thro’ the|
 [CE]3- [CE]2 [CA] | [Ec]>[=D=B][Ec] [Ee][Ec][EA] | [FA][GB][Ac] !fermata![Gd]2 [DF]/[DF]/ | %7
w: clear; * With|long- ing we think of the|bright an- gel band, And the|
w: there; * For|Heav- en’s fair courts has no|earth- ly one trod, Or be-|
w: years; * We|can- not know tru- ly till|God calls us “Come” To that|
 [CE]>[CA][Ec] [DB]<[DF][DG] | [CA]3- [CA]2 ||"^Refrain" [Ae] | [Ae]>[Ae][Af] [Ae][Ac]A | %11
w: time its sweet mu- sic we’ll|hear. *|||
w: held all their beau- ties so|rare. *|In|fan- cy we pic- ture that|
w: land where there’ll be no more|tears. *|||
 [Ac]>[AB][EA] [Ac]2 [Ae]/[Ae]/ | [Af][Ae][Ac] A>[GB][Ac] | B3- [GB]2 [Ae] | %14
w: |||
w: beau- ti- ful land Where the|glor- i- ous Lamb is the|light; How hap-|
w: |||
 [Ae]>[Ae][Af] [Ae][Ac]A | [Ac]>[AB][EA] [Ac]2 [Ae]/[Ae]/ | [Af][Ae]A [Ac]<[Ac][GB] | A3- [EA]2 |] %18
w: ||||
w: * py we’ll be when up|there we shall stand, And for|aye in His prais- es u-|nite! *|
w: ||||
V:2
 x | x6 | x5 E/E/ | x6 | x6 | x6 | x6 | x6 | x5 || x | x5 A | x6 | x3 A3/2 x3/2 | G2 F x3 | x5 A | %15
 x6 | x2 A x3 | E2 F x2 |] %18
V:3
 [A,,A,] | [A,,A,]>[A,,A,][A,,A,] [A,,A,][A,,A,][A,,A,] | %2
 [D,A,][D,A,][D,D] [A,,C]2 [C,A,]/[C,A,]/ | [E,G,]>[E,G,][E,G,] [E,G,]>[E,G,][E,G,] | %4
 [A,,A,]3- [A,,A,]2 [A,,A,] | [A,,A,]>[A,,A,][A,,A,] [A,C][A,C][A,C] | %6
 [F,C][E,E][A,E] [D,F]2 [D,A,]/[D,A,]/ | [E,A,]>[E,A,][E,A,] [E,G,]<[E,G,][E,B,] | %8
 [A,,A,]3- [A,,A,]2 || [A,C] | [A,C]>[A,C][A,C] [A,C][A,E][A,C] | %11
 [A,E]>[A,D][A,C] [A,E]2 [A,C]/[A,C]/ | [A,C][A,C][A,E] [C,E]>[E,E][A,E] | %13
 ([E,E]2 [B,,=D] [E,E]2) [E,B,] | [A,C]>[A,C][A,C] [A,C][A,E][A,C] | %15
 [A,E]>[A,D][A,C] [A,E]2 [A,C]/[A,C]/ | [A,C][A,C][F,C] [E,E]<[E,E][E,D] | (C2 D [A,,C]2) |] %18
V:4
 x | x6 | x6 | x6 | x6 | x6 | x6 | x6 | x5 || x | x6 | x6 | x6 | x6 | x6 | x6 | x6 | A,,3- x2 |] %18

